src/lib/packages/icons/src/assets/line/comments-dots.svg

<svg width="24" height="24" viewBox="0 0 24 24" fill="none" xmlns="http://www.w3.org/2000/svg">
<path d="M21.3511 19.812C20.7811 19.35 20.522 18.842 20.406 18.467C21.287 17.376 21.75 16.0141 21.75 14.5031C21.75 12.1921 20.6459 10.253 18.7219 9.09802C18.4369 5.03902 15.141 2.25098 10.5 2.25098C5.644 2.25098 2.25098 5.30204 2.25098 9.67004C2.25098 11.41 2.78999 12.9749 3.81299 14.2209C3.68299 14.6749 3.37696 15.311 2.65796 15.892C2.29296 16.203 2.16007 16.697 2.32007 17.151C2.48007 17.604 2.89089 17.9029 3.35889 17.9139C3.47489 17.9179 3.59406 17.92 3.71606 17.92C4.96106 17.92 6.50491 17.682 7.65991 16.735C8.58991 19.356 11.202 21.0341 14.5 21.0341C15.35 21.0341 16.1549 20.9261 16.9009 20.7111C17.9219 21.5441 19.2669 21.751 20.3379 21.751C20.4509 21.751 20.5629 21.749 20.6699 21.745C21.1289 21.745 21.5261 21.4641 21.6851 21.0291C21.8431 20.5901 21.7151 20.115 21.3511 19.812ZM4.28711 16.397C4.86211 15.732 5.23697 14.9501 5.36597 14.1281C5.40097 13.9011 5.33103 13.6711 5.17603 13.5031C4.24303 12.4931 3.75 11.1679 3.75 9.66895C3.75 6.18395 6.52502 3.75 10.499 3.75C14.474 3.75 17.249 6.18395 17.249 9.66895C17.249 13.1539 14.474 15.588 10.499 15.588C9.52702 15.588 8.60293 15.439 7.75293 15.146C7.46993 15.049 7.16196 15.127 6.95996 15.342C6.27096 16.08 5.18511 16.329 4.28711 16.397ZM19.6541 20.21C18.9501 20.13 18.158 19.905 17.634 19.349C17.429 19.132 17.1169 19.057 16.8369 19.156C16.1329 19.406 15.346 19.533 14.498 19.533C12.22 19.533 10.367 18.57 9.43604 17.016C9.78703 17.052 10.137 17.088 10.498 17.088C14.892 17.088 18.0789 14.587 18.6479 10.876C19.6839 11.766 20.248 13.016 20.248 14.501C20.248 15.773 19.8291 16.897 19.0371 17.752C18.8821 17.921 18.8109 18.1511 18.8469 18.3781C18.9509 19.0361 19.2301 19.664 19.6541 20.21ZM20.616 20.246C20.624 20.246 20.6309 20.245 20.6379 20.245H20.6389C20.6319 20.245 20.624 20.245 20.616 20.246ZM9.427 9.58801C9.427 9.03601 9.87012 8.58801 10.4221 8.58801H10.4319C10.9849 8.58801 11.4319 9.03601 11.4319 9.58801C11.4319 10.14 10.9849 10.588 10.4319 10.588C9.87988 10.588 9.427 10.141 9.427 9.58801ZM7.10303 10.588C6.55103 10.588 6.0979 10.14 6.0979 9.58801C6.0979 9.03601 6.54102 8.58801 7.09302 8.58801H7.10303C7.65603 8.58801 8.10303 9.03601 8.10303 9.58801C8.10303 10.14 7.65503 10.588 7.10303 10.588ZM12.7209 9.58801C12.7209 9.03601 13.1641 8.58801 13.7161 8.58801H13.7261C14.2791 8.58801 14.7261 9.03601 14.7261 9.58801C14.7261 10.14 14.2791 10.588 13.7261 10.588C13.1741 10.588 12.7209 10.141 12.7209 9.58801Z" fill="currentColor"/>
</svg>

<svg xmlns="http://www.w3.org/2000/svg" width="24" height="24" fill="none"><path fill="currentColor" d="M21.351 19.812c-.57-.462-.829-.97-.945-1.345.881-1.091 1.344-2.453 1.344-3.964 0-2.31-1.104-4.25-3.028-5.405-.285-4.059-3.581-6.847-8.222-6.847-4.856 0-8.249 3.051-8.249 7.419 0 1.74.539 3.305 1.562 4.55-.13.455-.436 1.091-1.155 1.672a1.143 1.143 0 0 0-.338 1.259c.16.453.57.752 1.039.763.116.004.235.006.357.006 1.245 0 2.789-.238 3.944-1.185.93 2.621 3.542 4.3 6.84 4.3.85 0 1.655-.109 2.4-.324 1.022.833 2.367 1.04 3.438 1.04.113 0 .225-.002.332-.006.459 0 .856-.28 1.015-.716.158-.439.03-.914-.334-1.217ZM4.287 16.397a4.562 4.562 0 0 0 1.079-2.269.752.752 0 0 0-.19-.625c-.933-1.01-1.426-2.335-1.426-3.834 0-3.485 2.775-5.919 6.749-5.919 3.975 0 6.75 2.434 6.75 5.919 0 3.485-2.775 5.919-6.75 5.919a8.41 8.41 0 0 1-2.746-.442.75.75 0 0 0-.793.196c-.689.738-1.775.987-2.673 1.055Zm15.367 3.813c-.704-.08-1.496-.305-2.02-.861a.751.751 0 0 0-.797-.193 6.98 6.98 0 0 1-2.339.377c-2.278 0-4.131-.963-5.062-2.517.351.036.701.072 1.062.072 4.394 0 7.58-2.501 8.15-6.212 1.036.89 1.6 2.14 1.6 3.625 0 1.272-.419 2.396-1.21 3.251a.752.752 0 0 0-.191.626c.104.658.383 1.286.807 1.832Zm.962.036.022-.001-.022.001ZM9.427 9.588c0-.552.443-1 .995-1h.01a1 1 0 1 1 0 2 1.004 1.004 0 0 1-1.005-1Zm-2.324 1a1.005 1.005 0 0 1-1.005-1c0-.552.443-1 .995-1h.01a1 1 0 1 1 0 2Zm5.618-1c0-.552.443-1 .995-1h.01a1 1 0 1 1 0 2 1.004 1.004 0 0 1-1.005-1Z"/></svg>
